assets/illustrations/search.svg

<svg fill="none" height="280" viewBox="0 0 280 280" width="280" xmlns="http://www.w3.org/2000/svg">
    <path
        d="m52.6631 127.029s38.7709-1.552 47.1494-65.2834c7.4405-56.59931 72.8185-30.8373 91.7165-8.2755 24.481 29.227 11.431 79.5039 43.1 85.8549 31.67 6.351 10.989 76.967-37.083 70.208-59.8-8.408-45.332 26.536-63.284 41.326-12.883 10.616-65.7105.397-67.4712-38.136-1.4816-32.426-15.1593-32.323-24.8542-36-13.9822-5.302-22.7925-43.706 10.7265-49.694z"
        fill="#dee9ff" />
    <path d="m184.462 197.807-38.091-37.639-7.543 7.633 38.092 37.639z" fill="#699cff" />
    <path
        d="m199.013 207.92-29.635-29.283c-.165-.163-.431-.161-.594.004l-11.216 11.351c-.163.165-.162.431.003.594l29.635 29.283c.165.163.431.162.594-.003l11.217-11.352c.163-.165.161-.431-.004-.594z"
        fill="#0e84e5" />
    <path
        d="m112.611 179.097c26.205 0 47.449-21.244 47.449-47.449 0-26.206-21.244-47.4498-47.449-47.4498-26.2059 0-47.4497 21.2438-47.4497 47.4498 0 26.205 21.2438 47.449 47.4497 47.449z"
        fill="#0e84e5" />
    <path
        d="m112.611 171.355c21.929 0 39.707-17.777 39.707-39.707s-17.778-39.7073-39.707-39.7073c-21.9299 0-39.7074 17.7773-39.7074 39.7073s17.7775 39.707 39.7074 39.707z"
        fill="#d4e5ff" />
    <g fill="#418df9">
        <path
            d="m192.83 88.7531c-11.13-3.6077-23.158 2.4939-26.781 13.6699-3.607 11.13 2.494 23.158 13.67 26.78s23.173-2.539 26.781-13.67c3.608-11.13-2.54-23.1724-13.67-26.7799zm-3.359 10.3614c1.246.4038 2.344 1.1685 3.155 2.1975.81 1.028 1.297 2.275 1.398 3.58.102 1.306-.187 2.612-.829 3.754-.643 1.141-1.609 2.066-2.778 2.657-1.168.591-2.486.822-3.786.663s-2.524-.7-3.516-1.555c-.991-.855-1.707-1.986-2.055-3.248-.349-1.263-.314-2.6.098-3.843 1.115-3.4387 4.874-5.3201 8.313-4.2055zm-8.403 25.9265c-3.698-1.193-6.866-3.634-8.962-6.905 3.923-2.229 8.024-2.85 11.734-1.647s6.727 4.08 8.537 8.217c-3.617 1.42-7.615 1.538-11.309.335z" />
        <path
            d="m100.191 190.176c-1.933.987-3.5302 2.525-4.5894 4.419-1.0592 1.895-1.5328 4.061-1.361 6.225.1719 2.163.9815 4.227 2.3265 5.931s3.165 2.97 5.2299 3.639c2.065.67 4.281.711 6.37.121 2.089-.591 3.955-1.788 5.364-3.439 1.408-1.652 2.295-3.684 2.549-5.839.253-2.156-.138-4.338-1.125-6.272-1.326-2.59-3.624-4.548-6.392-5.445-2.768-.898-5.779-.66-8.372.66zm2.556 5.008c.602-.308 1.282-.429 1.954-.35.671.08 1.304.357 1.817.796.514.44.885 1.022 1.067 1.673.183.651.167 1.342-.044 1.984-.21.643-.607 1.208-1.14 1.624-.532.417-1.176.666-1.851.715-.674.05-1.348-.101-1.936-.435-.587-.334-1.063-.835-1.366-1.439-.401-.806-.469-1.737-.188-2.592.28-.855.887-1.566 1.687-1.977zm6.396 12.53c-1.785.914-3.832 1.179-5.791.75.618-2.245 1.888-3.968 3.682-4.883 1.793-.916 3.944-.966 6.115-.117-.802 1.838-2.218 3.34-4.006 4.249z" />
    </g>
</svg>

<svg fill="none" height="280" viewBox="0 0 280 280" width="280" xmlns="http://www.w3.org/2000/svg">
    <path
        d="M52.6631 127.029C52.6631 127.029 91.434 125.477 99.8125 61.7456C107.253 5.14629 172.631 30.9083 191.529 53.4701C216.01 82.6971 202.96 132.974 234.629 139.325C266.299 145.676 245.618 216.292 197.546 209.533C137.746 201.125 152.214 236.069 134.262 250.859C121.379 261.475 68.5515 251.256 66.7908 212.723C65.3092 180.297 51.6315 180.4 41.9366 176.723C27.9544 171.421 19.1441 133.017 52.6631 127.029Z"
        fill="#DEE9FF" />
    <path d="M184.462 197.807L146.371 160.168L138.828 167.801L176.92 205.44L184.462 197.807Z" fill="#699CFF" />
    <path
        d="M199.013 207.92L169.378 178.637C169.213 178.474 168.947 178.476 168.784 178.641L157.568 189.992C157.405 190.157 157.406 190.423 157.571 190.586L187.206 219.869C187.371 220.032 187.637 220.031 187.8 219.866L199.017 208.514C199.18 208.349 199.178 208.083 199.013 207.92Z"
        fill="#0E84E5" />
    <path
        d="M112.611 179.097C138.816 179.097 160.06 157.853 160.06 131.648C160.06 105.442 138.816 84.1982 112.611 84.1982C86.4051 84.1982 65.1613 105.442 65.1613 131.648C65.1613 157.853 86.4051 179.097 112.611 179.097Z"
        fill="#0E84E5" />
    <path
        d="M112.611 171.355C134.54 171.355 152.318 153.578 152.318 131.648C152.318 109.718 134.54 91.9407 112.611 91.9407C90.6811 91.9407 72.9036 109.718 72.9036 131.648C72.9036 153.578 90.6811 171.355 112.611 171.355Z"
        fill="#D4E5FF" />
    <path
        d="M192.83 88.7531C181.7 85.1454 169.672 91.247 166.049 102.423C162.442 113.553 168.543 125.581 179.719 129.203C190.895 132.825 202.892 126.664 206.5 115.533C210.108 104.403 203.96 92.3606 192.83 88.7531ZM189.471 99.1145C190.717 99.5183 191.815 100.283 192.626 101.312C193.436 102.34 193.923 103.587 194.024 104.892C194.126 106.198 193.837 107.504 193.195 108.646C192.552 109.787 191.586 110.712 190.417 111.303C189.249 111.894 187.931 112.125 186.631 111.966C185.331 111.807 184.107 111.266 183.115 110.411C182.124 109.556 181.408 108.425 181.06 107.163C180.711 105.9 180.746 104.563 181.158 103.32C182.273 99.8813 186.032 97.9999 189.471 99.1145ZM181.068 125.041C177.37 123.848 174.202 121.407 172.106 118.136C176.029 115.907 180.13 115.286 183.84 116.489C187.55 117.692 190.567 120.569 192.377 124.706C188.76 126.126 184.762 126.244 181.068 125.041Z"
        fill="#418DF9" />
    <path
        d="M100.191 190.176C98.258 191.163 96.6608 192.701 95.6016 194.595C94.5424 196.49 94.0688 198.656 94.2406 200.82C94.4125 202.983 95.2221 205.047 96.5671 206.751C97.9121 208.455 99.7321 209.721 101.797 210.39C103.862 211.06 106.078 211.101 108.167 210.511C110.256 209.92 112.122 208.723 113.531 207.072C114.939 205.42 115.826 203.388 116.08 201.233C116.333 199.077 115.942 196.895 114.955 194.961C113.629 192.371 111.331 190.413 108.563 189.516C105.795 188.618 102.784 188.856 100.191 190.176ZM102.747 195.184C103.349 194.876 104.029 194.755 104.701 194.834C105.372 194.914 106.005 195.191 106.518 195.63C107.032 196.07 107.403 196.652 107.585 197.303C107.768 197.954 107.752 198.645 107.541 199.287C107.331 199.93 106.934 200.495 106.401 200.911C105.869 201.328 105.225 201.577 104.55 201.626C103.876 201.676 103.202 201.525 102.614 201.191C102.027 200.857 101.551 200.356 101.248 199.752C100.847 198.946 100.779 198.015 101.06 197.16C101.34 196.305 101.947 195.594 102.747 195.183V195.184ZM109.143 207.714C107.358 208.628 105.311 208.893 103.352 208.464C103.97 206.219 105.24 204.496 107.034 203.581C108.827 202.665 110.978 202.615 113.149 203.464C112.347 205.302 110.931 206.804 109.143 207.713V207.714Z"
        fill="#418DF9" />
</svg>
